!!!!SEGMENT: pl-wumfc--n53446--001-005_moniuszko-stanislaw--hrabina-no-4-piosnka-broni.krn
!!!cenid: 18xx:4092
!!!COM: Moniuszko, Stanisław
!!!COM-rismID: pe30008351
!!!CDT: 1819/05/05-1872/06/04
!!!CNT: Polish
!!!OPR: Hrabina
!!!OTL: No. 4. Piosnka Broni
!!!OMV: 005
!!!PDT:
!!!AGN:
!!!YEC: Copyright 2022 Narodowy Instytut Fryderyka Chopina (https://polishscores.org)
!!!YEM: License CC-BY-4.0 (https://creativecommons.org/licenses/by/4.0)
!!!SMS-siglum: PL-Wumfc
!!!SMS-shelfmark: N53446
!!!SMS-variant:
!!!SMS-altvar:
!!!SMS-shelfwork: 001-005 M
!!!NIFC-rismSourceID: 1001165649
!!!NIFC-rismChildID: 1001165649
!!!NIFC-islandoraID: pl-wumfc:6884
!!!URL-pdf-islandora: https://repozytorium.nifc.pl/islandora/object/pl-wumfc%3A6884/datastream/PDF/view
!!!URL-scan: https://polish.musicsources.pl/pl/lokalizacje/galeria/druki-muzyczne/12579 @EN{Scan on Polish Music Sources Website} @PL{Skany w portalu Dziedzictwo Muzyki Polskiej w otwartym dostępie}
!!!IIIF:
!!!ONB-nifc:
!!!AIN: 1 piano
!!!key: f#
**kern	**kern	**text	**dynam
*part1	*part1	*	*
*staff2	*staff1	*	*
*I"[Piano.]	*I"[Piano.]	*	*
*Ipiano	*Ipiano	*	*
*ICklav	*ICklav	*	*
*clefF4	*clefG2	*	*
*k[f#c#g#]	*k[f#c#g#]	*	*
*f#:	*f#:	*	*
*M3/8	*M3/8	*	*
=1	=1	=1	=1
!!LO:TX:B:a:t=Andantino.
!	!LO:TX:t=P:problem:cały tekst zapisany ponad pięciolinią	!	!
4.F#\	4.f# 4.c# 4.A/	.	p <
=2	=2	=2	=2
4.F# 4.BB\	4.f# 4.d 4.B/	.	[>
=3	=3	=3	=3
4.F# 4.FF#/	4.f# 4.c# 4.A/	.	]
=4	=4	=4	=4
!	!LO:TX:i:b:t=molto semplice	!	!
4.r	(8cc#\L	O	.
.	8b#X\)	mój	.
.	8bn\J	dzia-	.
=5	=5	=5	=5
8F#\L	(8a/L	-du-	.
8c# 8A'\	8g#/)	.	.
8c#J 8A'\	8f#/J	-niu	.
=6	=6	=6	=6
.	8qg#/	.	.
8F#\L	8f#/L	w blas-	.
8c# 8A'\	8e#X/	.	.
8c#J 8A'\	8f#/J	-ku	.
!!LO:LB:g=original
=7	=7	=7	=7
8E#X\L	4g#/	ca-	.
8c# 8B 8G#\	.	.	.
8BJ 8G#\	8c#/	-łym	.
=8	=8	=8	=8
8C#\L	8c#/L	i	.
8B 8G#\	16d#X/L	.	.
.	16e#X/	.	.
8BJ 8G#\	16f#/	w prze-	.
.	16g#/JJ	.	.
=9	=9	=9	=9
8FF#\L	(8a/L	-py-	.
8A 8F#\	8f#/)	.	.
8AJ 8C#\	16f#/L	-chu	.
.	16g#/JJ	.	.
=10	=10	=10	=10
*^	*	*	*
8r	4.D\	8.a/L	świet-	.
8AL 8F#/	.	.	.	.
.	.	16b/L	.	.
8dJ 8F#/	.	16a/	-nych	.
.	.	16b/JJ	.	.
*v	*v	*	*	*
=11	=11	=11	=11
8AA\L	4.cc#\	sal	.
8c# 8A\	.	.	.
8eJ 8c#\	.	.	.
=12	=12	=12	=12
*^	*^	*	*
8r	4.G#\	(8cc#/L	4.e#X\	Żal	.
8c#/L	.	8b#X/)	.	.	.
8c#/J	.	8bn/J	.	mi	.
!!LO:LB:g=original
=13	=13	=13	=13	=13	=13
8r	4.F#\	8.a^/L	8f#\	ci-	.
8c#L 8A/	.	.	8r	.	.
.	.	16g#/K	.	.	.
8c#J 8A/	.	8f#/J	8r	-szy	.
*	*	*v	*v	*	*
=14	=14	=14	=14	=14
.	.	(16qqf#/LL	.	.
.	.	16qqg#/JJ	.	.
8r	4.F#\	8f#/L)	w dwor-	.
8c#L 8A/	.	8e#X/	.	.
8c#J 8A/	.	8f#/J	-ku	.
=15	=15	=15	=15	=15
8r	4.F#\	(4g#/	bia-	.
8BL 8G#/	.	.	.	.
8BJ 8G#/	.	8c#/)	-łym,	.
*v	*v	*	*	*
=16	=16	=16	=16
8E#X\L	8c#/L	W al-	.
8B 8G#\	16d#X'/L	.	.
.	16e#X'/	.	.
8BJ 8G#\	16f#'/	-kie-	.
.	16g#'/JJ	.	.
=17	=17	=17	=17
*	*^	*	*
8F#\L	(8a/L	8ryy	-rzy-	.
8c# 8A\	8f#/)	8ryy	.	.
8BB\J	16f#/L	(8dn\	-ku	.
.	16g#/JJ	.	.	.
!!LO:LB:g=original
=18	=18	=18	=18	=18
*^	*	*	*	*
4.C#/	8C#\L	(4a/	4.c#\	kwiat-	.
.	8A 8F#\	.	.	.	.
.	8BJ 8E#X\	8g#/	.	-ków	.
*v	*v	*	*	*	*
*	*v	*v	*	*
=19	=19	=19	=19
8AL 8F#\	4f#/))	żal.	.
8c# 8A\	.	.	.
8f#J 8c# 8A\	8r	.	.
=20	=20	=20	=20
*^	*	*	*
8rA	4.AA\	8e 8c#/	.	mf
8AL 8E/	.	16f#LL 16d'/	.	.
.	.	16g# 16e'/	.	.
8AJ 8E/	.	16a 16f#'/	.	.
.	.	16bJJ 16g#'/	.	.
=21	=21	=21	=21	=21
8rA	4.AA\	8cc# 8a/	.	.
8AL 8E/	.	(16cc#LL 16a/	.	.
.	.	16ddJ 16b/	.	.
8AJ 8E/	.	8cc#J 8a/)	.	.
=22	=22	=22	=22	=22
8rA	4.AA\	(8eeL 8cc#\	.	.
8AL 8E/	.	8dd 8b\)	.	.
8AJ 8E/	.	8cc#J 8a'\	.	.
=23	=23	=23	=23	=23
8rA	4.AA\	4.b 4.g#/	.	.
8BL 8E/	.	.	.	.
8BJ 8E/	.	.	.	.
!!LO:LB:g=original
=24	=24	=24	=24	=24
*	*	*^	*	*
8rA	4.AA\	8b/	4.gn 4.e\	.	.
8AL 8E/	.	(16b/LL	.	.	>
.	.	16cc#/	.	.	.
8AJ 8E/	.	16b/	.	.	.
.	.	16cc#/JJ)	.	.	]
=25	=25	=25	=25	=25	=25
8rA	4.AA\	8dd/L	8r	.	.
8AL 8F#/	.	8f#/	8d\L	.	.
8AJ 8F#/	.	8a/J	8d\J	.	.
=26	=26	=26	=26	=26	=26
8B/L	4.E\	8g#/L	8r	.	.
8A/	.	8f#/	8d\L	.	.
8G#/J	.	8e/J	8d\J	.	.
*	*	*v	*v	*	*
=27	=27	=27	=27	=27
8rA	4.AA\	(>4cc# 4e 4c#/	.	.
8AL 8E/	.	.	.	.
8AJ 8E/	.	8a/)	.	.
=28	=28	=28	=28	=28
8rA	4.AA\	8e 8c#^^</	.	.
8AL 8E/	.	16f#LL 16d'/	.	.
.	.	16g# 16e'/	.	.
8AJ 8E/	.	16a 16f#'/	.	.
.	.	16bJJ 16g#'/	.	.
*v	*v	*	*	*
=29	=29	=29	=29
8AA/	8cc# 8a/	.	<
8c#L 8A 8E\	16cc#LL 16a\	.	.
.	16dd 16b\	.	.
8eJ 8A 8E\	16ee 16cc#\	.	.
.	16ff#JJ 16dd\	.	[[
!!LO:PB:g=original
=30	=30	=30	=30
*	*^	*	*
8AA/	8ff#L 8dd/	8a\L	.	.
8c#L 8A 8E\	8ee 8cc#/	8e\	.	.
8eJ 8A\	8cc#/J	8a\J	.	.
*	*v	*v	*	*
=31	=31	=31	=31
8E\L	4b 4g#/	.	.
8B 8G#\	.	.	.
8eJ 8B 8G#\	8b\	.	.
=32	=32	=32	=32
8E\L	8b 8gn 8e/	.	.
8B 8Gn\	(16b\LL	.	.
.	16cc#\	.	.
8eJ 8B 8G\	16b\	.	.
.	16cc#\JJ)	.	.
=33	=33	=33	=33
*^	*^	*	*
8r	(4.BB\	(8dd/L	4.d\	.	.
8BL 8F#/	.	8f#/J)	.	.	.
8BJ 8F#/	.	8f#/	.	.	.
*v	*v	*	*	*	*
*	*v	*v	*	*
=34	=34	=34	=34
!	!LO:TX:i:b:t=riten.	!	!
8F#L 8BB#X'\)	8aL 8d#X'/	.	.
8G# 8BB#'\	8g# 8d#'/	.	.
8AJ 8BB#'\	8f#J 8d#'/	.	.
=35	=35	=35	=35
4.G# 4.C#;\	4.cc# 4.e#X 4.c#;/	.	.
=36	=36	=36	=36
4.r	8cc#'\L	.	.
.	8b#X'\	.	.
.	8bn'\J	.	.
!!LO:LB:g=original
=37	=37	=37	=37
8FF#\L	(4a#X/	.	.
8c# 8A#X\	.	.	.
8eJ 8c#\	8f#/)	.	.
=38	=38	=38	=38
*^	*	*	*
!	!	!	!	!LO:HP:a
8r	4.F#\	8f#/L	.	<
8eL 8c#/	.	16g#/L	.	.
.	.	16a#X/	.	.
8eJ 8c#/	.	16b/	.	.
.	.	16cc#/JJ	.	[[
=39	=39	=39	=39	=39
*	*	*^	*	*
!	!	!	!	!	!LO:HP:a
8r	4BB\	4dd/	8r	.	>
8B/L	.	.	8f#L 8d\	.	.
8B/J	8r	8dd/	8f#J 8d\	.	]
*v	*v	*	*	*	*
=40	=40	=40	=40	=40
!	!	!	!	!LO:DY:a
8GGn\L	(8dd:/L	(4.gn: 4.d:\	.	pp
8B 8Gn\	8b/	.	.	.
8BJ 8G\	8cc#/J	.	.	.
=41	=41	=41	=41	=41
8AA\L	8dd/L	4f#\	.	.
8d 8A\	8a/	.	.	.
.	8qcc#/	.	.	.
8dJ 8G#X\	8b/J	8fn\)	.	.
=42	=42	=42	=42	=42
*^	*	*	*	*
8rA	4.AA\	4a/	8r	.	.
8A/L	.	.	8eL 8c#\	.	.
8A/J	.	8gn/)	8eJ 8c#\	.	.
*	*	*v	*v	*	*
!!LO:LB:g=original
=43	=43	=43	=43	=43
8r	4D\	4.f# 4.d/	.	.
8AL 8F#/	.	.	.	.
8AJ 8F#/	8r	.	.	.
*v	*v	*	*	*
=44	=44	=44	=44
(8D'\L	8ddL 8f# 8d'/	.	.
8E'\	8cc# 8gn 8d'/	.	.
8F#'\J	8ccnJ 8a 8d'/	.	.
=45	=45	=45	=45
8Gn'\L	8bL 8gn 8d'/	.	.
8D#X'\	8a 8f# 8cn'/	.	.
8E'\J)	8gJ 8e 8B'/	.	.
=46	=46	=46	=46
*	*^	*	*
8AA#X\L	8f# 8e 8c#X/	8ryy	.	.
8c#J 8F#\	16g#X/LL	8e\	.	<
.	16a#X/	.	.	.
8FF#/	16b/	8r	.	.
.	16cc#/JJ	.	.	[
=47	=47	=47	=47	=47
8BB\L	(4ee;/	4.b 4.f#\	.	sf >
8BJ 8F#\	.	.	.	.
8r	8dd#X/)	.	.	]
=48	=48	=48	=48	=48
8BB\L	8ddn/L	8f# 8d\	.	.
8d 8G# 8F#\	16cc#/L	8r	.	.
.	16b/	.	.	.
8dJ 8G# 8F#\	16a/	8r	.	.
.	16b/JJ	.	.	.
!!LO:LB:g=original
=49	=49	=49	=49	=49
8C#\L	(8cc#/L	8f# 8c#\	.	.
8c# 8A 8F#\	16b/L	8r	.	.
.	16a/	.	.	.
8c#J 8A 8F#\	16g#/	8r	.	.
.	16a/JJ)	.	.	.
=50	=50	=50	=50	=50
4.B 4.G# 4.C#\	8.cc#/L	4.e#X\	.	.
.	16b/L	.	.	.
.	16g#/	.	.	.
.	16cc#;/JJ	.	.	.
*	*v	*v	*	*
=51	=51	=51	=51
!	!LO:TX:i:a:t=a tempo I.	!	!
.	8qA/	.	.
(16FF#/LL	(8.f#\L	.	pp
16C#/	.	.	.
16A/JJ)	.	.	.
16r	16a\L	.	.
8r	16cc#\	.	.
.	16ff#\JJ	.	.
=52	=52	=52	=52
(16FF#/LL	8.aa\L	.	.
16D/	.	.	.
16A/JJ)	.	.	.
16r	16ff#\L	.	.
8r	16dd\	.	.
.	16a\JJ	.	.
=53	=53	=53	=53
(16GG#/LL	8.f#\L	.	.
16C#/	.	.	.
16A/JJ)	.	.	.
16r	16a\L	.	.
8r	16cc#\	.	.
.	16ff#\JJ)	.	.
!!LO:LB:g=original
=54	=54	=54	=54
(16FF#/LL	(8.aa\L	.	.
16D/	.	.	.
16A/JJ)	.	.	.
16r	16ff#\L	.	.
8r	16dd\	.	.
.	16a\JJ	.	.
=55	=55	=55	=55
(16FF#/LL	8.f#\L	.	.
16C#/	.	.	.
16A/JJ)	.	.	.
16r	16ff#\L	.	.
8r	16cc#\	.	.
.	16b\JJ	.	.
=56	=56	=56	=56
(16FF#/LL	8.a/L	.	.
16C#/	.	.	.
16A/JJ)	.	.	.
16r	16cc#/L	.	.
8r	16f#/	.	.
.	16g#/JJ	.	.
=57	=57	=57	=57
(16FF#/LL	8.a/L	.	.
16F#/	.	.	.
16A/JJ)	.	.	.
16r	16dd/L	.	.
8r	16f#/	.	.
.	16gn/JJ	.	.
=58	=58	=58	=58
(16EE/LL	8.b/L	.	.
16AA/	.	.	.
16Gn/JJ)	.	.	.
16r	16b-X/L	.	.
8r	16a/	.	.
.	16gn/JJ)	.	.
*kcancel	*kcancel	*	*
!!LO:PB:g=original
=59||	=59||	=59||	=59||
*k[f#c#]	*k[f#c#]	*	*
16DD/LL	8dd\L	Gdy-	.
16AA/	.	.	.
16F#/	8cc#\	.	.
16D/JJ	.	.	.
8d 8A 8F#\	8b\J	-by	.
=60	=60	=60	=60
16DD/LL	8a/L	na	.
16AA/	.	.	.
16F#/	8g#X/	.	.
16D/JJ	.	.	.
8d 8A 8F#\	8a/J	ski-	.
=61	=61	=61	=61
16DD/LL	8.b/L	-nie-	.
16AA/	.	.	.
16F#/	.	.	.
16D/JJ	16a/L	.	.
8d 8A 8F#\	16gn/	-nie	.
.	16f#/JJ	.	.
=62	=62	=62	=62
16DD/LL	4f#/	mo-	.
16BB-X/	.	.	.
16G/	.	.	.
16D/JJ	.	.	.
8d 8B-X 8G\	8e/	-je	.
=63	=63	=63	=63
16DD/LL	8ee\L	Na-	.
16BB-X/	.	.	.
16G/	8dd\	.	.
16D/JJ	.	.	.
8d 8B-X 8G\	8cc#\J	-gle	.
=64	=64	=64	=64
16DD/LL	4dd\	wy-	.
16BB-X/	.	.	.
16G/	.	.	.
16D/JJ	.	.	.
8d 8B-X 8G\	8b-X\	-padł	.
!!LO:LB:g=original
=65	=65	=65	=65
16DD/LL	4a/	ta-	.
16AA/	.	.	.
16E/	.	.	.
16D/JJ	.	.	.
8A 8G\	8e/	-ki	.
=66	=66	=66	=66
16DD/LL	4f#/	sąd:	.
16AA/	.	.	.
16F#/	.	.	.
16D/JJ	.	.	.
8d 8A 8F#\	8r	.	.
=67	=67	=67	=67
*	*^	*	*
16CC#/LL	4a\	8ryy	Masz	.
16AA/	.	.	.	.
16E/	.	16b/LL	.	.
16AA/	.	16cc#/	.	.
16E/	8a\	16dd/	bo-	.
16AA/JJ	.	16ee/JJ	.	.
=68	=68	=68	=68	=68
16D 16DD/	4a 4fn\	4ffn/	-gac-	.
16A\LL	.	.	.	.
16G#X\	.	.	.	.
16A\	.	.	.	.
16B\	8a\	8ee/	-twa:	.
16A\JJ	.	.	.	.
=69	=69	=69	=69	=69
16E 16EE/	8g#X\L	16ee/LL	bierz	.
16G#X\LL	.	16dd/JJ	.	.
16e\	8b\	8ryy	.	.
16d\	.	.	.	.
16c#\	8dd\J	8ryy	jak	.
16B\JJ	.	.	.	.
*	*v	*v	*	*
!!LO:LB:g=original
=70	=70	=70	=70
16AA\LL	4cc#\	swo-	.
16E\	.	.	.
16D#X\	.	.	.
16E\	.	.	.
16c#\	8a/	-je	.
16A\JJ	.	.	.
=71	=71	=71	=71
*^	*	*	*
4.C#/	16C#\LL	8a\L	.	.
.	16A\	.	.	.
.	16E\	16b\L	masz,	.
.	16A\	16cc#\	.	.
.	16E\	16dd\	.	.
.	16A\JJ	16ee\JJ	.	.
=72	=72	=72	=72	=72
*	*	*^	*	*
4.BB/	16BB\LL	4gg/	8r	.	.
.	16A\	.	.	.	.
.	16D\	.	4a^\	masz,	.
.	16A\	.	.	.	.
.	16D\	8ffn/	.	.	.
.	16A\JJ	.	.	.	.
=73	=73	=73	=73	=73	=73
4.E/	16E\LL	16ee/LL	8g#X\L	za-	.
.	16B\	16dd/JJ	.	.	.
.	16e\	8ryy	8b\	-bierz	.
.	16d\	.	.	.	.
.	16c#\	8ryy	8ee\J	jak	.
.	16B\JJ	.	.	.	.
*v	*v	*	*	*	*
=74	=74	=74	=74	=74
8AL 8AA/	4ee/	8ccnL 8e\	swo-	<
8G#X 8GG#X/	.	8bn 8e\	.	.
8GnJ 8GGn/	8ee/	8ccJ 8b-X 8e\	-je,	[
*	*v	*v	*	*
!!LO:LB:g=original
=75||	=75||	=75||	=75||
*k[b-]	*k[b-]	*	*
*	*^	*	*
*	*	*cue	*	*
16FF/LL	8eeL 8f\	8.a/L	Bo-	.
16C/	.	.	.	.
16A/	8ee\	.	.	.
16F/JJ	.	16cc/L	.	.
8c 8A\	8dd\J	16ff/	-gactw	.
.	.	16gg/JJ	.	.
=76	=76	=76	=76	=76
16FF/LL	4cc\	8.aa/L	tych	.
16C/	.	.	.	.
16A/	.	.	.	.
16F/JJ	.	16ff/L	.	.
8c 8A\	8rf	16cc/	.	.
.	.	16b-/JJ	.	.
=77	=77	=77	=77	=77
16FF/LL	8.dd\L	16am>/LL	a-	.
16C/	.	16g/	.	.
16A/	.	16f/	.	.
16F/JJ	16cc\L	16a/	-ni	.
8c 8A\	16b-\	16dd/	bym	.
.	16a\JJ	16cc/JJ	do-	.
=78	=78	=78	=78	=78
16FF/LL	4a\	16cc/LL	-tknę-	.
16D-X/	.	16bn/JJ	.	.
16B-/	.	4b-X/	.	.
16F/JJ	.	.	.	.
8d-X 8B-\	8g\	.	-ła	.
=79	=79	=79	=79	=79
16FF/LL	4dd-X\	8.b-/L	Bo-	.
16D-X/	.	.	.	.
16B-/	.	.	.	.
16F/JJ	.	16dd-/L	.	.
8d 8B-\	8b-\	16ff/	-gactw	.
.	.	16bb-/JJ	.	.
!!LO:LB:g=original
=80	=80	=80	=80	=80
16FF\LL	4f\	8.ddd-X/L	tych	.
16D-X\	.	.	.	.
16B-\	.	.	.	.
16F\JJ	.	16ccc/L	.	.
8d 8B-\	8rc	16bb-/	.	.
.	.	16aa/JJ	.	.
=81	=81	=81	=81	=81
16FF\LL	16e\LL	16ggM>/LL	a-	.
16C\	16e\J	16ff/	-ni	.
16B-\	8g\	16ee/	bym	.
16G\JJ	.	16ff/	.	.
8e 8c 8B-\	8cc\J	16gg/	do-	.
.	.	16b-/JJ	.	.
*	*	*Xcue	*	*
=82	=82	=82	=82	=82
!	!LO:TX:i:a:t=un poco più animato	!	!	!
16FF\LL	8b-/L	8f\L	-tknę-	.
16c 16F\	.	.	.	.
16c 16F\	16a/Jk	8f\	-ła,	.
16c 16F\	16r	.	.	.
16c 16F\	16a/LL	8f\J	lecz	.
16cJJ 16F\	16a/JJ	.	dzia-	.
=83	=83	=83	=83	=83
(16ALL 16F\	8.a/L	(16c\LL	-du-	.
16GJJ 16E\)	.	16c#X\JJ)	.	.
16GLL 16E\	.	16c#\LL	.	.
16G 16E\	16b-/L	16c#\	-niu	.
16G 16E\	16a/	16c#\	jak	.
16GJJ 16E\	16g#X/JJ	16c#\JJ	mnie	.
=84	=84	=84	=84	=84
(16GLL 16E\	4a/	(16c#X\LL	znasz	.
16FJJ 16D\)	.	16d\JJ)	.	.
16FLL 16D\	.	16d\LL	.	.
16F 16D\	.	16d\	.	.
16F 16D\	16a/LL	16d\	lecz	.
16FJJ 16D\	16a/JJ	16d\JJ	dzia-	.
!!LO:PB:g=original
=85	=85	=85	=85	=85
(16FLL 16D\	8.a/L	16d\LL	-du-	.
16F#XJJ 16C\)	.	16e-X\JJ	.	.
16F#LL 16C\	.	16e-\LL	.	.
16F# 16C\	16a/L	16e-\	-niu	.
16F# 16C\	16g#X/	16e-\	jak	.
16F#JJ 16C\	16a/JJ	16e-\JJ	mnie	.
=86	=86	=86	=86	=86
(16F#XLL 16C\	4dd/	16d\LL	znasz,	.
16GJJ 16BBn\)	.	16d\	.	.
16GLL 16BB\	.	16d\	.	.
16G 16BB\	.	16d\	.	.
16G 16BB\	16dd/LL	16d\	za-	.
16GJJ 16BB\	16dd/JJ	16d\JJ	-raz	.
=87	=87	=87	=87	=87
(16GLL 16BBn\	8.ee/L	16d\LL	ptasz-	.
16G#XJJ 16BB-X\)	.	16d\	.	.
16G#LL 16BB-\	.	16d\	.	.
16G# 16BB-\	16dd/L	16d\	-kiem	.
16G# 16BB-\	16cc#X/	16d\	bym	.
16G#JJ 16BB-\	16dd/JJ	16d\JJ	fru-	.
=88	=88	=88	=88	=88
(16G#XLL 16BB-\	8dd/L	16d\LL	-nę-	.
16A 16AA\)	.	16f 16d\	.	.
16A 16AA\	8a/J	16f 16d\	-ła	.
16A 16AA\	.	16f 16d\	.	.
16A 16AA\	16dd/LL	16f 16d\	Gdzie	.
16AJJ 16AA\	16dd/JJ	16fJJ 16d\	ten	.
=89	=89	=89	=89	=89
(16ALL 16AA\	8.dd/L	16fLL 16d\	bia-	.
16A-XJJ 16AA-X\)	.	16b- 16f\	.	.
16A-LL 16AA-\	.	16b- 16f\	.	.
16A- 16AA-\	16cc#X/L	16b- 16f\	-ły	.
16A- 16AA-\	16ee/	16b- 16f\	dwo-	.
16A-JJ 16AA-\	16dd/JJ	16b-JJ 16f\	-rek	.
!!LO:LB:g=original
=90	=90	=90	=90	=90
*ped	*	*	*	*
16G 16GG/	[4.ffn 4.dd/	16bnLL 16f\	nasz.	.
16dLL 16G\	.	16b 16f\	.	.
16d 16G\	.	16b 16f\	.	.
!	!	!	!	!LO:HP:b:t=molto cre-scen-do:ext=ud:ext2=ud
16d 16G\	.	16b 16f\	.	<
16d 16G\	.	16b 16f\	.	.
16dJJ 16G\	.	16bJJ 16f\	.	.
*	*v	*v	*	*
=91	=91	=91	=91
16dLL 16G\	8ff]L 8b- 8f\	.	.
16d 16G\	.	.	.
16d 16G\	8dd 8b-^^ 8f\	.	.
16d 16G\	.	.	.
16d 16G\	8eeJ 8b- 8f^^\	.	.
*Xped	*	*	*
16dJJ 16G\	.	.	.
=92	=92	=92	=92
16dLL 16G\	8ffL 8bn 8f^^\	.	.
16d 16G\	.	.	.
16d 16G\	8dd 8b 8f^^\	.	.
16d 16G\	.	.	.
16d 16G\	8eeJ 8b 8f^^\	.	.
16dJJ 16G\	.	.	.
=93	=93	=93	=93
16dLL 16G\	8ffL 8bn 8f^^\	.	[
16d 16G\	.	.	.
16d 16G\	8dd 8b 8f^^\	.	.
16d 16G\	.	.	.
16d 16G\	8eeJ 8b 8f^^\	.	.
16dJJ 16G\	.	.	.
!!LO:LB:g=original
=94||	=94||	=94||	=94||
*k[f#c#g#]	*k[f#c#g#]	*	*
*	*^	*	*
16CC#\LL	4.ee#X 4.dd/	16bLL 16e#X\	.	ff
16BJJ 16G# 16C#\	.	16b 16e#\	.	.
16BLL 16G# 16C#\	.	16b 16e#\	.	.
16B 16G# 16C#\	.	16b 16e#\	.	.
16B 16G# 16C#\	.	16b 16e#\	.	.
16BJJ 16G# 16C#\	.	16bJJ 16e#\	.	.
=95	=95	=95	=95	=95
*^	*	*	*	*
16BLL 16G#/	4.C#\	[4.ee#X/	8ddL 8b 8e#X\	.	.
16B 16G#/	.	.	.	.	.
16B 16G#/	.	.	8b 8e#\	.	.
16B 16G#/	.	.	.	.	.
16B 16G#/	.	.	8cc#J 8e#\	.	.
16BJJ 16G#/	.	.	.	.	.
=96	=96	=96	=96	=96	=96
16BLL 16G#/	4.C#\	4.ee#/_	8ddL 8e#X\	.	.
16B 16G#/	.	.	.	.	.
16B 16G#/	.	.	8b 8e#\	.	.
16B 16G#/	.	.	.	.	.
16B 16G#/	.	.	8cc#J 8e#\	.	.
16BJJ 16G#/	.	.	.	.	.
=97	=97	=97	=97	=97	=97
16r	4.C#\	4.ee#/]	(>8dddL 8dd\	.	.
16e#XLL 16B 16G#/	.	.	.	.	.
16e# 16B 16G#/	.	.	8ccc# 8cc#\	.	.
16e# 16B 16G#/	.	.	.	.	.
16e# 16B 16G#/	.	.	8bbJ 8b\	.	.
16e#JJ 16B 16G#/	.	.	.	.	.
*v	*v	*	*	*	*
*	*v	*v	*	*
=98	=98	=98	=98
16C#\LL	8aaL 8a\	.	.
16f# 16c# 16A\	.	.	.
16c# 16A\	8gg# 8g#\	.	.
16c# 16A\	.	.	.
16c# 16A\	8ff#J 8f#\	.	.
16c#JJ 16A\	.	.	.
!!LO:LB:g=original
=99	=99	=99	=99
16c#LL 16A\	8ff#L 8f#\	.	.
16c# 16A\	.	.	.
16c# 16A\	8ee#X 8e#X\	.	.
16c# 16A\	.	.	.
16c# 16A\	8ff#J 8f#\	.	.
16c#JJ 16A\	.	.	.
=100	=100	=100	=100
*^	*	*	*
16c#LL 16B/	[4.C#\	4gg# 4g#\	.	.
16c# 16B/	.	.	.	.
16c# 16B/	.	.	.	.
16c# 16B/	.	.	.	.
16c# 16B/	.	8cc#\)	.	.
16c#JJ 16B/	.	.	.	.
=101	=101	=101	=101	=101
16BLL 16E#X/	4.C#\]	8cc#L 8g# 8c#/	.	.
16B 16E#/	.	.	.	.
16B 16E#/	.	16dd#XL 16d#X/	.	.
16B 16E#/	.	16ee#X 16e#X/	.	.
16B 16E#/	.	16ff# 16f#/	.	.
16BJJ 16E#/	.	16gg#JJ 16g#/	.	.
=102	=102	=102	=102	=102
16A/LL	(8F#\L	(8aaL 8a\	.	.
16c# 16A/	.	.	.	.
16c# 16A/	8E#X\	8ff# 8f#\	.	.
16c# 16A/	.	.	.	.
16c# 16A/	8En\J	8gg#J 8g#\	.	.
16c#JJ 16A/	.	.	.	.
=103	=103	=103	=103	=103
16dLL 16A/	8D\L	8aaL 8ff# 8a\)	.	.
16A 16F#/	.	.	.	.
16A 16E/	8C#\	16aaL 16ff# 16a\	.	.
16A 16E/	.	16gg# 16g#\	.	.
16A 16E/	8BB\J)	16aa 16dd 16a\	.	.
16G#JJ 16E/	.	16bbJJ 16b\	.	.
!!LO:LB:g=original
=104	=104	=104	=104	=104
8qAA/	.	.	.	.
*	*	*^	*	*
16A/LL	8A\L	4.ccc#/	16cc#\LL	.	.
16e/	.	.	16ee 16cc#\	.	.
16e/	8G#\	.	16ee 16cc#\	.	.
16e/	.	.	16ee 16cc#\	.	.
16e/	8AJ 8F#\	.	16ee 16cc#\	.	.
16e/JJ	.	.	16eeJJ 16cc#\	.	.
=105	=105	=105	=105	=105	=105
16e/LL	8G#L 8E\	8ccc#/L	16eeLL 16cc#\	.	.
16e/	.	.	16eeJ 16cc#\	.	.
16e/	8A 8F# 8E\	8bb#X/	16dd#XL 16b#X\	.	.
16e/	.	.	16dd#J 16b#\	.	.
16e/	8BJ 8G# 8E\	8bbn/J	16ddnL 16bn\	.	.
16e/JJ	.	.	16ddJJ 16b\	.	.
*v	*v	*	*	*	*
=106	=106	=106	=106	=106
16eLL 16A\	8aa/L	16cc#LL 16a\	.	.
16e 16A\	.	16cc#J 16a\	.	.
16e 16A\	8gg#/	16cc#L 16g#\	.	.
16e 16A\	.	16cc#J 16g#\	.	.
16e 16A\	8ff#/J	16cc#L 16f#\	.	.
16eJJ 16A\	.	16cc#JJ 16f#\	.	.
=107	=107	=107	=107	=107
16dLL 16A 16D\	8ff#/L	16cc#LL 16f#\	.	.
16d 16A 16D\	.	16cc#J 16f#\	.	.
16d 16A 16D\	8ee#X/	16cc#L 16e#X\	.	.
16d 16A 16D\	.	16cc#J 16e#\	.	.
16d 16A 16D\	8ff#/J	16cc#L 16f#\	.	.
16dJJ 16A 16D\	.	16cc#JJ 16f#\	.	.
!!LO:PB:g=original
=108	=108	=108	=108	=108
*ped	*	*	*	*
16G# 16GG#/	(4gg# 4dd#X/	16b#XLL 16g#\	.	.
16d#XLL 16G#\	.	16b# 16g#\	.	.
16d# 16G#\	.	16b# 16f#\	.	.
16d# 16G#\	.	16b#JJ 16f#\	.	.
*Xped	*	*	*	*
16c# 16G# 16C#\	8cc#/)	16e#X\LL	.	.
16c#JJ 16G# 16C#\	.	16e#\JJ	.	.
=109	=109	=109	=109	=109
*^	*	*	*	*
16c#/LL	8Bn\L	8cc#/L	16g#LL 16e#X\	.	.
16c#/	.	.	16g#JJ 16e#\	.	.
16c#/	8A\	16dd#XL 16g# 16d#X/	4ryy	.	.
16c#/	.	16ee#X 16e#X/	.	.	.
16c# 16B/	8G#\J	16ff# 16f#/	.	.	.
16c#JJ 16B/	.	16gg#JJ 16g#/	.	.	.
*v	*v	*	*	*	*
*	*v	*v	*	*
=110	=110	=110	=110
16c#LL 16A 16F#\	(8aaL 8a\	.	.
16c# 16A 16F#\	.	.	.
16c# 16A 16F#\	8ff#J 8f#\)	.	.
16c# 16A 16F#\	.	.	.
16d 16A 16D\	(16ff#LL 16f#\	.	.
16dJJ 16A 16D\	16gg#JJ 16g#\)	.	.
=111	=111	=111	=111
*^	*^	*	*
16c#LL 16E 16AA\	4ryy	(4aa/	8cc#L 8a\	.	.
16c# 16A\	.	.	.	.	.
16c# 16A\	.	.	8cc#\	.	.
16c#JJ 16A\	.	.	.	.	.
!	!LO:TX:t=P:problem:błędne wyświetlanie łuku	!	!	!	!
16BLL 16E#X/	(>8C#\	8gg#/)	8cc#J 8g#\	.	.
16BJJ 16E#/	.	.	.	.	.
*v	*v	*	*	*	*
!!LO:LB:g=original
=112	=112	=112	=112	=112
16ALL 16F#/)	4ff#/	16cc# 16f#\	.	.
16C#'/	.	16f#LL 16A\	.	.
16BB'/	.	16f# 16A\	.	.
16AA'/	.	16f# 16A\	.	.
16GG#'/	8r	16f# 16A\	.	.
16FF#'/JJ	.	16f#JJ 16A\	.	.
*	*v	*v	*	*
=113	=113	=113	=113
16GG#/	16eLL 16d 16B\	.	.
16dLL 16B 16G#\	16ee 16b 16e\	.	<
16d 16B 16A\	16ff# 16b 16f#\	.	.
16d 16B 16G#\	16gg# 16ee 16g#\	.	.
16d 16B 16F#\	16aa 16ee 16a\	.	.
16dJJ 16G# 16E\	16bbJJ 16ee 16b\	.	[
=114	=114	=114	=114
16A 16AA\	16ccc#LL 16ee 16cc#\	.	mf
*clefG2	*	*	*
16aLL 16e 16A/	16ccc# 16aa 16cc#\	.	.
16a 16e 16A/	16ccc# 16aa 16cc#\	.	.
16a 16e 16A/	16ddd 16aa 16dd\	.	.
16a 16e 16A/	16ccc# 16aa 16cc#\	.	.
16aJJ 16e 16A/	16dddJJ 16aa 16dd\	.	.
=115	=115	=115	=115
*^	*^	*	*
16aLL 16e/	8c#\L	8eee/L	16ee\LL	.	.
16a 16e/	.	.	16ee\	.	.
16a 16e/	8B\	8ddd/	16ee 16dd\	.	.
16a 16e/	.	.	16ee 16dd\	.	.
16a 16e/	8A\J	8ccc#/J	16ee 16cc#\	.	.
16aJJ 16e/	.	.	16eeJJ 16cc#\	.	.
*v	*v	*	*	*	*
!!LO:LB:g=original
=116	=116	=116	=116	=116
16g#LL 16e/	[4.bb/	16eeLL 16b\	.	>
16g# 16e/	.	16ee 16b\	.	.
16g# 16e/	.	16ee 16b\	.	.
16g# 16e/	.	16ee 16b\	.	.
16g# 16e/	.	16ee 16b\	.	.
16g#JJ 16e/	.	16eeJJ 16b\	.	]
=117	=117	=117	=117	=117
16gnLL 16e/	8bb/]	8ee 8b\	.	p
16g 16e/	.	.	.	.
16g 16e/	8bbL 8b/	4ryy	.	.
16g 16e/	.	.	.	.
16a 16g 16e/	8ccc#J 8cc#/	.	.	.
16aJJ 16g 16e/	.	.	.	.
*	*v	*v	*	*
*clefF4	*	*	*
=118	=118	=118	=118
16f#LL 16d\	(8dddL 8ff# 8dd\	.	.
16f# 16d\	.	.	.
16f# 16d\	8ff# 8dd\)	.	.
16f# 16d\	.	.	.
16f# 16d 16B\	8aaJ 8dd 8a\	.	.
16f#JJ 16d 16B\	.	.	.
=119	=119	=119	=119
*	*^	*	*
*	*	*Xtuplet	*	*
16eLL 16B 16E\	(8ddL 8g#\	24gg#/LL	.	.
*	*	*cue	*	*
.	.	24aa/	.	.
16e 16B 16E\	.	.	.	.
.	.	24gg#/JJ	.	.
*	*	*tuplet	*	*
*	*	*Xcue	*	*
16d 16B 16A 16E\	8ff# 8dd 8f#\	8ryy	.	.
16d 16B 16A 16E\	.	.	.	.
16d 16G# 16E\	8eeJ 8b 8e\)	8ryy	.	.
16dJJ 16G# 16E\	.	.	.	.
!!LO:LB:g=original
=120	=120	=120	=120	=120
16c#LL 16A\	(4ccc#/	16eeLL 16cc#\	.	.
16c# 16A\	.	16ee 16cc#\	.	.
16c# 16A 16G#\	.	16ee 16cc#\	.	.
16c# 16A 16F#\	.	16ee 16cc#\	.	.
16c# 16A 16E\	8aa/)	16ee 16cc#\	.	.
16AJJ 16D\	.	16eeJJ 16a\	.	.
=121	=121	=121	=121	=121
16ALL 16C#\	16ee/	16ee\	.	.
16E\	16eeLL 16e\	16ryy	.	<
16E 16D#X\	16ff# 16ee 16f#\	4ryy	.	.
16E 16Dn\	16gg# 16ee 16g#\	.	.	.
16E 16C#\	16aa 16ee 16a\	.	.	.
16EJJ 16BB\	16bbJJ 16ee 16b\	.	.	.
*	*v	*v	*	*
=122	=122	=122	=122
16ALL 16E 16AA\	16ccc#LL 16ee 16cc#\	.	.
16B 16E 16AA\	16ddd 16ee 16dd\	.	.
16A 16E 16AA\	16ccc# 16ee 16cc#\	.	.
16G# 16E 16AA\	16bb#X 16ee 16b#X\	.	.
16A 16E 16AA\	16ccc# 16ee 16cc#\	.	.
16BJJ 16E 16AA\	16dddJJ 16ee 16dd\	.	[
=123	=123	=123	=123
*	*^	*	*
16dLL 16A\	8fff#/L	16aaLL 16ff#\	.	f
16d 16A\	.	16aa 16ff#\	.	.
16c# 16A\	8eee/	16aa 16ee\	.	.
16c# 16A\	.	16aa 16ee\	.	.
16e 16A\	8ccc#/J	16aa 16cc#\	.	.
16eJJ 16A\	.	16aaJJ 16cc#\	.	.
*	*v	*v	*	*
!!LO:LB:g=original
=124	=124	=124	=124
16eLL 16B 16E\	16bbLL 16aa 16b\	.	>
16e 16B 16E\	16bb 16gg# 16b\	.	.
16e 16B 16E\	16bb 16ff# 16b\	.	.
16e 16B 16E\	16bb 16gg# 16b\	.	.
16e 16B 16E\	16bb 16ee 16b\	.	.
16eJJ 16B 16E\	16bbJJ 16ff# 16b\	.	]]
=125	=125	=125	=125
*	*^	*	*
16eLL 16B 16E\	8ryy	16bbLL 16ggn 16b\	.	.
16B 16E\	.	16bb 16gg 16b\	.	.
16B 16F# 16D\	8bb/L	16ff# 16b\	.	.
16B 16F# 16D\	.	16ff# 16b\	.	.
16A#X 16F# 16C#\	8ccc#/J	16ee 16cc#\	.	.
16A#JJ 16F# 16C#\	.	16eeJJ 16cc#\	.	.
=126	=126	=126	=126	=126
16B 16F# 16BB\	16ddd 16ff# 16dd\	16ryy	.	.
16BLL 16F# 16BB\	16ryy	16ff#LL 16dd 16f#\	.	.
16A#X 16F# 16AA#X\	8ff#/L	16cc# 16f#\	.	.
16B 16F# 16BB\	.	16dd 16f#\	.	.
16A# 16F# 16AA#\	8ff#/J	16cc# 16f#\	.	.
16BJJ 16F# 16BB\	.	16ddJJ 16f#\	.	.
=127	=127	=127	=127	=127
16BLL 16F# 16BB\	8aa^/L	16dd#XLL 16a\	.	.
16F# 16BB\	.	16dd# 16a\	.	.
16G# 16BB\	8gg#/	16dd# 16g#\	.	.
16G# 16BB\	.	16dd# 16g#\	.	.
16A 16BB#X\	8ff#/J	16dd# 16f#\	.	.
16AJJ 16BB#\	.	16dd#JJ 16f#\	.	.
!!LO:PB:g=original
=128	=128	=128	=128	=128
16G#LL 16C#\	4.ccc#/	16ff#LL 16cc#\	.	.
16c#JJ 16G#\	.	16ff# 16cc#\	.	.
*clefG2	*	*	*	*
16g#LL 16c#'/	.	16ee#X 16cc#\	.	.
16g# 16c#'/	.	16ee# 16cc#\	.	.
16g# 16c#'/	.	16een 16cc#\	.	.
16g#JJ 16c#'/	.	16eeJJ 16cc#\	.	.
=129	=129	=129	=129	=129
16g#LL 16d 16G#/	8ccc#/L	16dd#XLL 16cc#\	.	pp
16g# 16d 16G#/	.	16dd# 16cc#\	.	.
16g# 16d 16G#/	8bb#X/	16dd# 16b#X\	.	.
16g#JJ 16d 16G#/	.	16dd# 16b#\	.	.
16g#LL 16c#/	8bbn/J	16ee#X 16bn\	.	.
16g#JJ 16c#/	.	16ee#JJ 16b\	.	.
*clefF4	*	*	*	*
=130	=130	=130	=130	=130
16f#LL 16c# 16F#\	(4aa#X/	16eenLL 16a#X\	.	.
16f# 16c# 16F#\	.	16ee 16a#\	.	.
16f# 16c# 16F#\	.	16ee 16a#\	.	.
16f# 16c# 16F#\	.	16ee 16a#\	.	.
16f# 16c# 16F#\	8ff#/)	16ee 16a#\	.	.
16f#JJ 16c# 16F#\	.	16eeJJ 16a#\	.	.
*	*v	*v	*	*
=131	=131	=131	=131
16f#LL 16c# 16A#X\	16ff#LL 16ee 16cc#'\	.	<
16f# 16c# 16A#\	16ff# 16ee 16cc#'\	.	.
16f# 16c# 16B\	16gg# 16ee 16g#'\	.	.
16f# 16c# 16A#\	16aa#X 16ee 16a#X'\	.	.
16f# 16c# 16G#\	16bb 16ee 16b'\	.	.
16f#JJ 16c# 16F#\	16ccc#JJ 16ee 16cc#'\	.	[[
!!LO:LB:g=original
=132	=132	=132	=132
*	*^	*	*
16BB/	4ddd/	16dd\LL	.	.
*clefG2	*	*	*	*
16bLL 16f# 16B/	.	16ff# 16dd\	.	.
16b 16f# 16B/	.	16ff# 16dd\	.	.
16b 16f# 16B/	.	16ff# 16dd\	.	.
16b 16f# 16B/	8ddd/	16ff# 16dd\	.	.
16bJJ 16f# 16B/	.	16ff#JJ 16dd\	.	.
=133	=133	=133	=133	=133
16E/LL	(8ddd/L	16gg#XLL 16dd\	.	>
16b 16e/	.	16gg# 16dd\	.	.
16b 16e/	8bb/	16gg# 16dd\	.	.
16b 16e/	.	16gg# 16dd\	.	.
16b 16e/	8ccc#/J	16gg# 16dd\	.	.
16bJJ 16e/	.	16gg#JJ 16dd\	.	.
=134	=134	=134	=134	=134
16aLL 16A/	8ddd/L	16ff#LL 16dd\	.	.
16a 16A/	.	16ff# 16dd\	.	.
16a 16A/	8aa/	16ff# 16dd\	.	.
16aJJ 16A/	.	16ff# 16dd\	.	.
16g#XLL 16A/	16ccc#/L	16ffn 16dd\	.	.
16g#JJ 16A/	16bb/JJ)	16ffJJ 16dd\	.	]
=135	=135	=135	=135	=135
16gnLL 16A/	(4aa/	16eeLL 16dd\	.	.
16g 16A/	.	16ee 16cc#\	.	.
16g 16A/	.	16ee 16ccn\	.	.
16gJJ 16A/	.	16ee 16b\	.	.
16eLL 16A/	8ggn/	16cc#X 16b-X\	.	.
16eJJ 16A/	.	16cc#JJ 16a\	.	.
*clefF4	*	*	*	*
!!LO:LB:g=original
=136	=136	=136	=136	=136
16dLL 16A\	4.ff#/)	16ddLL 16f#\	.	.
16d 16G#X\	.	16dd 16f#\	.	.
16d 16Gn\	.	16dd 16f#\	.	.
16d 16F#\	.	16dd 16f#\	.	.
16d 16E\	.	16dd 16f#\	.	.
16dJJ 16D\	.	16ddJJ 16f#\	.	.
=137	=137	=137	=137	=137
*^	*	*	*	*
16dLL 16A/	8D\L	8ddd/L	16ff#LL 16dd\	.	.
16d 16A/	.	.	16ff# 16dd\	.	.
16d 16A/	8E\	8ccc#/	16ggn 16cc#\	.	.
16d 16A/	.	.	16gg 16cc#\	.	.
16d 16A/	8F#\J	8cccn/J	16aa 16ccn\	.	.
16dJJ 16A/	.	.	16aaJJ 16cc\	.	.
=138	=138	=138	=138	=138	=138
16dLL 16B/	8Gn\L	8bb/L	16ggnLL 16b\	.	.
16d 16B/	.	.	16ggJJ 16b\	.	.
16cn 16F#/	8D#X\	8aa/	16ff#LL 16a\	.	.
16c 16F#/	.	.	16ff#JJ 16a\	.	.
16B 16G/	8E\J	8gg/J	16eeLL 16gn\	.	.
16BJJ 16G/	.	.	16eeJJ 16g\	.	.
*v	*v	*	*	*	*
=139	=139	=139	=139	=139
16AA#X/	16ee 16cc#X 16f#\	16ff#/	.	.
16eLL 16c# 16A#X\	16ff#LL 16cc# 16f#\	16ryy	.	<
16e 16c# 16B\	16gg#X 16cc# 16g#X\	4ryy	.	.
16e 16c# 16A#\	16aa#X 16ff# 16a#X\	.	.	.
16e 16c# 16G#\	16bb 16ff# 16b\	.	.	.
16eJJ 16A# 16F#\	16ccc#JJ 16ff# 16cc#\	.	.	[
!!LO:LB:g=original
=140	=140	=140	=140	=140
16BLL 16F# 16BB\	(4eee;/	16ff#LL 16ee\	.	f >
16f#JJ 16B\	.	16ff#J 16ee\	.	.
8f# 8B\	.	(>8ff# 8ee\	.	.
*clefG2	*	*	*	*
8r;	8ddd#X/)	8ff#J 8dd#X\)	.	]
*	*v	*v	*	*
=141	=141	=141	=141
!	!LO:TX:i:a:t=più lento.	!	!
4.g# 4.f# 4.B/	8dddnL 8ddn\	.	p
.	16cc#\L	.	.
.	16b\	.	.
.	16a\	.	.
.	16b\JJ	.	.
=142	=142	=142	=142
*^	*	*	*
8a/	4.f# 4.c#\	8cc#\L	.	.
8r	.	16b\L	.	.
.	.	16a\	.	.
8r	.	16g#\	.	.
.	.	16a\JJ	.	.
*v	*v	*	*	*
*clefF4	*	*	*
=143	=143	=143	=143
*	*^	*	*
4.B 4.G# 4.C#;\	8.cc#;/L	4.e#X\	.	.
.	16b/L	.	.	.
.	16g#/	.	.	.
.	16cc#;/JJ	.	.	.
*	*v	*v	*	*
=144	=144	=144	=144
16FF#\LL	8.f#/L	.	.
16C#\	.	.	.
16AJJ 16F#\	.	.	.
16r	16a/L	.	.
8r	16cc#/	.	.
.	16ff#/JJ	.	.
!!LO:LB:g=original
=145	=145	=145	=145
16FF#\LL	8.aa\L	.	.
16D\	.	.	.
16AJJ 16F#\	.	.	.
16r	16ff#\L	.	.
8r	16cc#\	.	.
.	16a\JJ	.	.
=146	=146	=146	=146
!	!LO:TX:i:a:t=più lento	!	!
16FF#'/	(8.f#/L	.	pp
(16C#\LL	.	.	.
16AJJ 16F#\)	.	.	.
*clefG2	*	*	*
16c#'/LL	16g#/L	.	.
16f#'/	16a/	.	.
16c#'/JJ	16cc#/JJ	.	.
=147	=147	=147	=147
*ped	*	*	*
8cc#: 8a: 8f#:/	8.ff#\L	.	ppp
8r	.	.	.
*Xped	*	*	*
.	16cc#\L	.	.
!	!LO:N:vis=16.	!	!
8r;	16a;\	.	.
.	16g#\JJ)	.	.
=148	=148	=148	=148
4.r	4f#/	.	.
.	8r	.	.
*clefF4	*	*	*
=149	=149	=149	=149
*ped	*	*	*
4f#: 4c#: 4A: 4F#:\	4ff#: 4cc#: 4a:\	.	ppp
8r	8r	.	.
=150	=150	=150	=150
*Xped	*	*	*
4.FF#;</	4.f# 4.c# 4.A;</	.	.
==	==	==	==
*-	*-	*-	*-
!!!system-decoration: {(p1)}
!!!RDF**kern: > = above
!!!RDF**kern: < = below
!!!ENC: Berenika Jozajtis
!!!END: 2022-08-20
!!!ENC: Kamil Watkowski
!!!END: 2022-09-26
